#Title	#05 姫百合 珊瑚
#Title2	(c)AQUAPLUS／Composed by ZR2U

!!bg @6  V125 ?o4c   ; bass drum
!!sg @8  V120 ?o4c   ; snare drum 1
!!Sg @7  V115 ?o4c   ; snare drum 2
!!og @9  V90  ?o4c   ; open H.H.
!!hg @10 V90  ?o4c   ; closeH.H.
!!cg @11 V110 ?o4c   ; crush cymbal
!!tg @13 V110 ?o4c   ; synth tom (hi)
!!ug @14 V110 ?o4c   ; synth tom (mid)
!!vg @15 V110 ?o4c   ; synth tom (low)
!!Cg @16 V120 ?o4c   ; clap

A T110

ABCDEF E0,0,0,0Y0,0,0,0D0

;===============================================================================
; メイン

!APartA r6ccrcdr6<br6>cr<barg>r2
!APartB r6ddrder6crdr4r6ddr6gr6 cr3<aarb>crd
!APartC r6eerefr6dr6erdcrcr2
!APartD e6rf6r g4r4f6re6r d6r<brg4r4g> c6rc6r<b>rcdre r2 e6rf6r g4r4f6re6r d6r<brg4rg6a> c8r8c8r8r6<a>cr<a> c4d4e4f4


A	l12D+24

A	V100o5@0

A	r3r2L
A	r1r6dc6g&g4 r4r1r6>c<b6g&g4 r4r1r6dc6g&g4 r4r1.
A	!APartA !APartB er6drcr6<ag>re
A	[r1]2
A	!APartC !APartB er6frer6cr6c

A	r1.
A	!APartD

A	e6re6rerer6e r4d4f4e4 c4r6cc6de6ag6rdrdr4r6<a>
A	c6rcr<a>c6rcr<a>c6rdrc6rcdre f4e4d4e4d4r4g4r4
A	e6re6rerer6e r4d4f4e4 c4r6cc6de6>c<b6rgrgr4r6g
A	a4g4e4d4 c6rd6c6r6c4 d4e4f4g4 e4<g4>e4d6c c2

;===============================================================================
; サブ



B	l12D+8

B	r3L
B	V90o5@2
B	c1<b3&b>c&c2 c1<b6gb6>c&c2
B	g1&g4f4e6dc6<g1rb6gb6>c&c2
B	V100o5@2Y0,0,0,0
B	[r1]6 r4<e4g4>c4<a2>f2
B	V90o5@0
B	!APartA r6<bbrb>cr6<arbr4r6bb>r6er6 <ar3ffrgarb> cr6drcr6<gr6g>

B	V100o5@2
B	r4>c6r<b6ra6rg6rf6r
B	V90o5@0
B	!APartD

B	c6rc6rcrcr6c r4<b4>d4c4 <a4r6aa6b>c6de6r<brbr2
B	V100o5@2
B	a4.r8g4.r8f4arag4.r8 d4.r8d4c4g4.r8g4.r8
B	V90o5@0
B	c6rc6rcrcr6c r4<b4>d4c4 <a4r6aa6b>c6de6rerer2
B	V100o5@2
B	cr<ga6>cr6cd6c cr<ga6>cr6cg6c
B	[r1]2

;===============================================================================
; 伴奏


C	D-8

C	r3L
C	V90l8o4@2
C	[grgrarargrgrgrgr grgrfrfrgrgrgrgr]2

C	grgrgrgrarargrgr grgrarargrgrgrgr
C	arararararararar grgrgrgrarararar
C	grgrgrgrarargrgr grgrarargrgrgrgr
C	arararararararar grgrgrgrgrgrgrgr

C	grgrgrgrgrgrgrgr grgrgrgrgrgrgrgr
C	grgrgrgrgrgrgrgr grgrr4f32&g32&a32&b32&>c32&d32&e32&f32&g1

C	c1<g2>d2c1d6<r12b6b2r12
C	>crcrcrcrcrcrcrcr drdrdrdrcrcrcrcr
C	c1<g2>d2c1d6<r12b6b2r12
C	>crcrcrcrcrcrcrcr <grgrgrgr g1

;===============================================================================
; ベース


D	V90o2@0l12D-24

D	r3L
D	c6rc6rd6rd6r<b6rb6r>c6rc6r c6rc6r<a6ra6rg6rg6r>c6rc6r
D	c6rc6rd6rd6r<b6gb6r>c6<g>c6r c6rc6r<a6ra6rg6rg6r>c6rc6<g>

D	cr3c<gr3gfr3f>cr6cr6 er3efr3cer3cer3e
D	dr3<a>dr3d<gr3dgr3g> cr3<g>cr3<g>cr6<er6fr6g>r6
D	cr3c<gr3gfr3f>cr3c er3efr3fer3e<b6>re6r
D	dr3<a>dr<a>d6r<gr3dgr3g> cr3<g>cr3<g>cr6crdcr<g>c6r

D	<f4a4>c4f4e4<b4g4e4>
D	d8r8d8r8<b8r8g8r8a8r8e8r8g8r8e8r8
D	f4a4>c4f4e4<b4g4e4>
D	d8r8d8r8r4r6d<grgarabrb>d4

D	cr3ccr3c<br3bbr3b ar3aar3>der3<ber3e
D	fr3fer3e>dr3dcr3c dr3ddr<a>d6r<gr3gg6r>d6r
D	cr3ccr3c<br3bbrgb6r ar3aareg6aer3eer>e<e6r
D	fr3fer3e>dr<a>c6dcr6c6r dr3<a>dr6dr6 g2r4<g4>



;===============================================================================
; ドラム

F =1
F	l12

F	!sg gr!bg
F	L
F	[!bg r!hg!sg r!bg gr!hg!Cg r!hg]7
F	!bg r!hg!sg r!tg!ug r!hg!Cg r!hg
F	!cg r!hg!sg r!bg [!bg r!hg!sg r!bg]29
F	[!sg r!hg]4

F	!cg r!hg [!sg r!hg]25
F	r6!tg gr!ug
F	!sg r!hg[!sg r g]3

F	[!bg r!hg!sg r!bg gr!hg!Cg r!hg]15
F	!bg r!hg!sg r!bg
F	r6!tg gr!ug

